X:220
T: Dan O'Keeffe's #2
S: "100 Enduring Irish Session Tunes" ("Mally")
Z: B.Black
L: 1/8
M: 12/8
R: slide
K: G
A|B3 cBc d3 d2 e|dBG dBG A3 ABc|\
B2 B cBc d2 B d2 g|fed cBA G3 G2 :|
d|g2 d B2 g f2 e c3|ded c2 A ded B2 d|\
g2 d B2 g f2 e c2 B|ABc def g3 g2 :|
